svgs/sharp-regular/nfc.svg

<svg xmlns="http://www.w3.org/2000/svg" viewBox="0 0 448 512"><!--! Font Awesome Pro 6.6.0 by @fontawesome - https://fontawesome.com License - https://fontawesome.com/license (Commercial License) Copyright 2024 Fonticons, Inc. --><path d="M400 80l0 352L48 432 48 80l352 0zM48 32L0 32 0 80 0 432l0 48 48 0 352 0 48 0 0-48 0-352 0-48-48 0L48 32zM272 256c0-17.8-9.7-33.3-24-41.6l0-54.4 72 0 0 192-192 0 0-192 8 0 24 0 0-48-24 0-32 0-24 0 0 24 0 240 0 24 24 0 240 0 24 0 0-24 0-240 0-24-24 0-120 0-24 0 0 24 0 78.4c-14.3 8.3-24 23.8-24 41.6c0 26.5 21.5 48 48 48s48-21.5 48-48z"/></svg>

<svg xmlns="http://www.w3.org/2000/svg" viewBox="0 0 448 512"><!--! Font Awesome Pro 6.4.0 by @fontawesome - https://fontawesome.com License - https://fontawesome.com/license (Commercial License) Copyright 2023 Fonticons, Inc. --><path d="M400 80V432H48V80H400zM48 32H0V80 432v48H48 400h48V432 80 32H400 48zM272 256c0-17.8-9.7-33.3-24-41.6V160h72V352H128V160h8 24V112H136 104 80v24V376v24h24H344h24V376 136 112H344 224 200v24 78.4c-14.3 8.3-24 23.8-24 41.6c0 26.5 21.5 48 48 48s48-21.5 48-48z"/></svg>
